packages/webapp/public/images/template-logos/atlassian.svg

<svg width="62" height="62" viewBox="0 0 62 62" fill="none" xmlns="http://www.w3.org/2000/svg">
<path d="M22.0587 29.2963C21.928 29.1252 21.7554 28.9906 21.5574 28.9058C21.3595 28.821 21.143 28.7887 20.929 28.8121C20.7149 28.8355 20.5105 28.9138 20.3356 29.0394C20.1607 29.1651 20.0212 29.3337 19.9306 29.5291L9.13701 51.1163C9.03842 51.3128 8.99168 51.5312 9.00122 51.7508C9.01076 51.9705 9.07626 52.184 9.19152 52.3712C9.30678 52.5585 9.46796 52.7131 9.65978 52.8205C9.8516 52.9279 10.0677 52.9846 10.2875 52.985H25.3174C25.5607 52.9897 25.8 52.9228 26.0057 52.7928C26.2114 52.6628 26.3744 52.4752 26.4746 52.2535C29.7133 45.6031 27.7514 35.3814 22.0587 29.2963Z" fill="url(#paint0_linear_1120_582)"/>
<path d="M29.9793 9.69067C27.2886 13.83 25.7205 18.5979 25.429 23.5263C25.1376 28.4547 26.1327 33.3742 28.3167 37.8019L35.5989 52.2531C35.7051 52.4679 35.8689 52.6488 36.0721 52.7757C36.2753 52.9025 36.5099 52.9703 36.7494 52.9714H51.7793C51.99 52.954 52.1935 52.8867 52.3729 52.7749C52.5524 52.6632 52.7026 52.5103 52.8112 52.3289C52.9197 52.1475 52.9835 51.9429 52.9972 51.732C53.0109 51.521 52.9741 51.3098 52.8899 51.1159L32.1739 9.69067C32.0747 9.48383 31.9191 9.30924 31.7249 9.18704C31.5308 9.06484 31.306 9 31.0766 9C30.8472 9 30.6225 9.06484 30.4283 9.18704C30.2342 9.30924 30.0785 9.48383 29.9793 9.69067Z" fill="#2684FF"/>
<defs>
<linearGradient id="paint0_linear_1120_582" x1="27.9776" y1="32.6282" x2="16.5854" y2="52.3665" gradientUnits="userSpaceOnUse">
<stop stop-color="#0052CC"/>
<stop offset="0.92" stop-color="#2684FF"/>
</linearGradient>
</defs>
</svg>

<svg xmlns="http://www.w3.org/2000/svg" width="62" height="62" fill="none"><path d="M22.059 29.296a1.25 1.25 0 0 0-1.13-.484 1.25 1.25 0 0 0-.998.717L9.137 51.116a1.29 1.29 0 0 0 .055 1.255 1.29 1.29 0 0 0 1.096.614h15.03c.243.005.483-.062.688-.192s.369-.318.469-.539c3.239-6.65 1.277-16.872-4.416-22.957z" fill="url(#A)"/><path d="M29.979 9.691a28.47 28.47 0 0 0-1.663 28.111l7.282 14.451a1.29 1.29 0 0 0 1.151.718h15.03a1.33 1.33 0 0 0 1.032-.643 1.33 1.33 0 0 0 .079-1.213L32.174 9.691c-.099-.207-.255-.381-.449-.504S31.306 9 31.077 9s-.454.065-.648.187-.35.297-.449.504z" fill="#2684ff"/><defs><linearGradient id="A" x1="27.978" y1="32.628" x2="16.585" y2="52.366" gradientUnits="userSpaceOnUse"><stop stop-color="#0052cc"/><stop offset=".92" stop-color="#2684ff"/></linearGradient></defs></svg>
